X:177
T:Na'er a Bottom. Ru1.177, The
%%VWML:RutherfordVol1-2248-p69-0p69
Z:Transcription by Village Music Project, Steve Mansfield July 2015
F:http://www.village-music-project.org.uk/
F:http://www.vwml.org/record/RutherfordVol1/2248/p69
L:1/8
W:The first Cu. casts off two Cu. .| Lead up
W:to the top foot it and cast off :| Hands
W:round all six with the 2d and 3d Cu. .|.
W:Right hand and left quite round with the 2d Couple :|
Q:3/8=90
K:G
|:B2B BAG | c2c cBA | d2d dcB | AGA B2G |
B2B BAG | c2c cBA | d2d dcB | AGF !fermata!G3 :|
B/c/ |d2d gBc | d2d gBc | d2d g2f | efd ^c2A |
f2f fed | g2g gfe | a2a agf | ed^c d2 !D.C.! |]
T:Scarbrough Whim. Ru1.178
B:Rutherford's Country Dances Vol 1, 1756
Z:village music project, Steve Mansfield July 2015
M:6/8
L:1/8
W:The first Cu. casts off and hands round with
W:the 2d Cu. .| the same with ye 3d Cu. :|
W:Lead up to the Top foot it and cast off .|.
W:Right hand and left quite round with the 2d
W:Couple :|
Q:3/8=90
K:G
|:d3 BGB | c3 ABc | BGB dBd | gdc BAG |
cec B3 | AFA c3 | BGB AFD | G3 G,3 :|
b3 dgb | a2A dfa | gfg eag | fed =f3 |
ece a3 | dBd gdc | BGB AFD | G3 G,3 :|]
